build/images/footer/CITYHACK.svg

<svg width="1205" height="193" viewBox="0 0 1205 193" fill="none" xmlns="http://www.w3.org/2000/svg">
<path d="M165.77 65.9127H131.57C130.595 60.3043 128.797 55.3359 126.175 51.0076C123.554 46.6184 120.292 42.8997 116.391 39.8517C112.489 36.8036 108.039 34.5175 103.04 32.9935C98.1025 31.4085 92.7683 30.616 87.0379 30.616C76.8573 30.616 67.835 33.1764 59.971 38.2971C52.107 43.3569 45.9498 50.7943 41.4996 60.6091C37.0494 70.3629 34.8243 82.2809 34.8243 96.363C34.8243 110.689 37.0494 122.759 41.4996 132.574C46.0108 142.328 52.1679 149.704 59.971 154.703C67.835 159.641 76.8269 162.11 86.9465 162.11C92.555 162.11 97.7976 161.379 102.675 159.915C107.612 158.391 112.032 156.166 115.934 153.24C119.896 150.314 123.219 146.717 125.901 142.45C128.644 138.183 130.534 133.306 131.57 127.819L165.77 128.002C164.49 136.902 161.716 145.254 157.449 153.057C153.242 160.86 147.725 167.749 140.897 173.723C134.07 179.637 126.084 184.27 116.94 187.622C107.795 190.914 97.6452 192.56 86.4893 192.56C70.0297 192.56 55.3379 188.75 42.4141 181.13C29.4902 173.51 19.3096 162.506 11.8723 148.119C4.43501 133.732 0.716352 116.48 0.716352 96.363C0.716352 76.1848 4.46549 58.9326 11.9638 44.6067C19.462 30.2197 29.6731 19.2162 42.5969 11.596C55.5208 3.97578 70.1516 0.165682 86.4893 0.165682C96.9137 0.165682 106.607 1.62876 115.568 4.55491C124.529 7.48107 132.515 11.7789 139.526 17.4483C146.536 23.0568 152.297 29.9454 156.808 38.1143C161.381 46.2222 164.368 55.4883 165.77 65.9127ZM212.737 2.72607V190H178.812V2.72607H212.737ZM223.219 31.1646V2.72607H372.636V31.1646H314.753V190H281.102V31.1646H223.219ZM370.613 2.72607H408.928L454.74 85.5728H456.569L502.382 2.72607H540.696L472.572 120.138V190H438.738V120.138L370.613 2.72607ZM546.698 190V2.72607H580.623V82.0066H667.401V2.72607H701.418V190H667.401V110.445H580.623V190H546.698ZM744.339 190H708.128L774.058 2.72607H815.939L881.96 190H845.749L795.73 41.1319H794.267L744.339 190ZM745.528 116.572H844.286V143.822H745.528V116.572ZM1040.1 65.9127H1005.9C1004.92 60.3043 1003.13 55.3359 1000.5 51.0076C997.883 46.6184 994.621 42.8997 990.72 39.8517C986.818 36.8036 982.368 34.5175 977.369 32.9935C972.431 31.4085 967.097 30.616 961.367 30.616C951.186 30.616 942.164 33.1764 934.3 38.2971C926.436 43.3569 920.279 50.7943 915.828 60.6091C911.378 70.3629 909.153 82.2809 909.153 96.363C909.153 110.689 911.378 122.759 915.828 132.574C920.34 142.328 926.497 149.704 934.3 154.703C942.164 159.641 951.156 162.11 961.275 162.11C966.884 162.11 972.126 161.379 977.003 159.915C981.941 158.391 986.361 156.166 990.262 153.24C994.225 150.314 997.547 146.717 1000.23 142.45C1002.97 138.183 1004.86 133.306 1005.9 127.819L1040.1 128.002C1038.82 136.902 1036.04 145.254 1031.78 153.057C1027.57 160.86 1022.05 167.749 1015.23 173.723C1008.4 179.637 1000.41 184.27 991.268 187.622C982.124 190.914 971.974 192.56 960.818 192.56C944.358 192.56 929.667 188.75 916.743 181.13C903.819 173.51 893.638 162.506 886.201 148.119C878.764 133.732 875.045 116.48 875.045 96.363C875.045 76.1848 878.794 58.9326 886.292 44.6067C893.791 30.2197 904.002 19.2162 916.926 11.596C929.85 3.97578 944.48 0.165682 960.818 0.165682C971.242 0.165682 980.935 1.62876 989.897 4.55491C998.858 7.48107 1006.84 11.7789 1013.85 17.4483C1020.87 23.0568 1026.63 29.9454 1031.14 38.1143C1035.71 46.2222 1038.7 55.4883 1040.1 65.9127ZM1053.14 190V2.72607H1087.07V88.7733H1089.35L1162.41 2.72607H1203.84L1131.42 86.7616L1204.48 190H1163.69L1107.82 109.714L1087.07 134.22V190H1053.14Z" fill="white"/>
</svg>

<svg width="1205" height="193" fill="none" xmlns="http://www.w3.org/2000/svg"><path d="M165.77 65.913h-34.2c-.975-5.609-2.773-10.577-5.395-14.905-2.621-4.39-5.883-8.108-9.784-11.156-3.902-3.048-8.352-5.334-13.351-6.858-4.938-1.585-10.272-2.378-16.002-2.378-10.18 0-19.203 2.56-27.067 7.681C52.107 43.357 45.95 50.794 41.5 60.61c-4.45 9.754-6.676 21.672-6.676 35.754 0 14.326 2.225 26.396 6.676 36.211 4.51 9.754 10.668 17.13 18.471 22.129 7.864 4.938 16.856 7.407 26.976 7.407 5.608 0 10.85-.731 15.728-2.195 4.937-1.524 9.357-3.749 13.259-6.675 3.962-2.926 7.285-6.523 9.967-10.79 2.743-4.267 4.633-9.144 5.669-14.631l34.2.183c-1.28 8.9-4.054 17.252-8.321 25.055-4.207 7.803-9.724 14.692-16.552 20.666-6.827 5.914-14.813 10.547-23.957 13.899-9.145 3.292-19.295 4.938-30.45 4.938-16.46 0-31.152-3.81-44.076-11.43-12.924-7.62-23.104-18.624-30.542-33.011C4.435 133.732.716 116.48.716 96.363c0-20.178 3.75-37.43 11.248-51.756 7.498-14.387 17.71-25.39 30.633-33.011C55.52 3.976 70.152.166 86.489.166c10.425 0 20.118 1.463 29.079 4.389 8.961 2.926 16.947 7.224 23.958 12.893 7.01 5.609 12.771 12.497 17.282 20.666 4.573 8.108 7.56 17.374 8.962 27.799zm46.967-63.187V190h-33.925V2.726h33.925zm10.482 28.439V2.726h149.417v28.439h-57.883V190h-33.651V31.165h-57.883zM370.613 2.726h38.315l45.812 82.847h1.829l45.813-82.847h38.314l-68.124 117.412V190h-33.834v-69.862L370.613 2.726zM546.698 190V2.726h33.925v79.28h86.778V2.727h34.017V190h-34.017v-79.555h-86.778V190h-33.925zm197.641 0h-36.211l65.93-187.274h41.881L881.96 190h-36.211L795.73 41.132h-1.463L744.339 190zm1.189-73.428h98.758v27.25h-98.758v-27.25zm294.572-50.66h-34.2c-.98-5.608-2.77-10.576-5.4-14.904-2.617-4.39-5.879-8.108-9.78-11.156-3.902-3.048-8.352-5.334-13.351-6.858-4.938-1.585-10.272-2.378-16.002-2.378-10.181 0-19.203 2.56-27.067 7.681-7.864 5.06-14.021 12.497-18.472 22.312-4.45 9.754-6.675 21.672-6.675 35.754 0 14.326 2.225 26.396 6.675 36.211 4.512 9.754 10.669 17.13 18.472 22.129 7.864 4.938 16.856 7.407 26.975 7.407 5.609 0 10.851-.731 15.728-2.195 4.938-1.524 9.358-3.749 13.259-6.675 3.963-2.926 7.285-6.523 9.968-10.79 2.74-4.267 4.63-9.144 5.67-14.631l34.2.183c-1.28 8.9-4.06 17.252-8.32 25.055-4.21 7.803-9.73 14.692-16.55 20.666-6.83 5.914-14.82 10.547-23.962 13.899-9.144 3.292-19.294 4.938-30.45 4.938-16.46 0-31.151-3.81-44.075-11.43-12.924-7.62-23.105-18.624-30.542-33.011-7.437-14.387-11.156-31.639-11.156-51.756 0-20.178 3.749-37.43 11.247-51.756 7.499-14.387 17.71-25.39 30.634-33.011C929.85 3.976 944.48.166 960.818.166c10.424 0 20.117 1.463 29.079 4.389 8.961 2.926 16.943 7.224 23.953 12.893 7.02 5.609 12.78 12.497 17.29 20.666 4.57 8.108 7.56 17.374 8.96 27.799zM1053.14 190V2.726h33.93v86.047h2.28l73.06-86.047h41.43l-72.42 84.036L1204.48 190h-40.79l-55.87-80.286-20.75 24.506V190h-33.93z" fill="#fff"/></svg>
